assets/img/braze_icons/clock-check.svg

<svg fill="none" height="24" viewBox="0 0 24 24" width="24" xmlns="http://www.w3.org/2000/svg"><g clip-rule="evenodd" fill="#801ed7" fill-rule="evenodd"><path d="m22.7071 16.7929c.3905.3905.3905 1.0237 0 1.4142l-4.5 4.5c-.3905.3905-1.0237.3905-1.4142 0l-2-2c-.3905-.3905-.3905-1.0237 0-1.4142s1.0237-.3905 1.4142 0l1.2929 1.2929 3.7929-3.7929c.3905-.3905 1.0237-.3905 1.4142 0z"/><path d="m12 1c-6.07513 0-11 4.92487-11 11 0 6.0751 4.92487 11 11 11 .373 0 .7416-.0186 1.1051-.0548.0301-.003-.0453.0045-.0382.0036.3861-.0497.567-.5563.2997-.8393-.0049-.0051.0234.0231.0121.0118-1.1716-1.1716-1.1716-3.071 0-4.2426 1.1308-1.1309 2.9399-1.1702 4.1179-.1179l2.3821-2.3821c.5614-.5614 1.29-.8538 2.0255-.8772.3547-.0112.5321-.0169.6266-.0619.0951-.0453.1469-.0907.2043-.1791.057-.0878.0775-.2121.1184-.4608.0964-.5856.1465-1.1868.1465-1.7997 0-6.07513-4.9249-11-11-11zm0 4c.5523 0 1 .44772 1 1v5.382l3.4472 1.7236c.494.247.6942.8476.4472 1.3416s-.8476.6942-1.3416.4472l-4-2c-.3388-.1694-.5528-.5156-.5528-.8944v-6c0-.55228.4477-1 1-1z"/></g></svg>

<svg width="24" height="24" viewBox="0 0 24 24" fill="none" xmlns="http://www.w3.org/2000/svg">
<path fill-rule="evenodd" clip-rule="evenodd" d="M22.7071 16.7929C23.0976 17.1834 23.0976 17.8166 22.7071 18.2071L18.2071 22.7071C17.8166 23.0976 17.1834 23.0976 16.7929 22.7071L14.7929 20.7071C14.4024 20.3166 14.4024 19.6834 14.7929 19.2929C15.1834 18.9024 15.8166 18.9024 16.2071 19.2929L17.5 20.5858L21.2929 16.7929C21.6834 16.4024 22.3166 16.4024 22.7071 16.7929Z" fill="#801ED7"/>
<path fill-rule="evenodd" clip-rule="evenodd" d="M12 1C5.92487 1 1 5.92487 1 12C1 18.0751 5.92487 23 12 23C12.373 23 12.7416 22.9814 13.1051 22.9452C13.1352 22.9422 13.0598 22.9497 13.0669 22.9488C13.453 22.8991 13.6339 22.3925 13.3666 22.1095C13.3617 22.1044 13.39 22.1326 13.3787 22.1213C12.2071 20.9497 12.2071 19.0503 13.3787 17.8787C14.5095 16.7478 16.3186 16.7085 17.4966 17.7608L19.8787 15.3787C20.4401 14.8173 21.1687 14.5249 21.9042 14.5015C22.2589 14.4903 22.4363 14.4846 22.5308 14.4396C22.6259 14.3943 22.6777 14.3489 22.7351 14.2605C22.7921 14.1727 22.8126 14.0484 22.8535 13.7997C22.9499 13.2141 23 12.6129 23 12C23 5.92487 18.0751 1 12 1ZM12 5C12.5523 5 13 5.44772 13 6V11.382L16.4472 13.1056C16.9412 13.3526 17.1414 13.9532 16.8944 14.4472C16.6474 14.9412 16.0468 15.1414 15.5528 14.8944L11.5528 12.8944C11.214 12.725 11 12.3788 11 12V6C11 5.44772 11.4477 5 12 5Z" fill="#801ED7"/>
</svg>
